svgs/light/square-phone.svg

<svg xmlns="http://www.w3.org/2000/svg" viewBox="0 0 448 512"><!--! Font Awesome Pro 6.3.0 by @fontawesome - https://fontawesome.com License - https://fontawesome.com/license (Commercial License) Copyright 2023 Fonticons, Inc. --><path d="M384 32H64C28.65 32 0 60.66 0 96v320c0 35.34 28.65 64 64 64h320c35.35 0 64-28.66 64-64V96C448 60.66 419.3 32 384 32zM416 416c0 17.64-14.36 32-32 32H64c-17.64 0-32-14.36-32-32V96c0-17.64 14.36-32 32-32h320c17.64 0 32 14.36 32 32V416zM337.5 276.3C337.5 276.3 337.5 276.3 337.5 276.3l-47.91-20.53c-15.17-6.328-32.97-1.859-43.25 10.75l-6.719 8.188C226.1 265.5 214.5 253.9 205.4 240.4l8.266-6.781c12.86-10.62 17.11-28.06 10.55-43.41L203.7 142.5c-7.141-16.52-25.06-25.5-42.58-21.52L116.9 131.2C99.91 135.1 88 149.1 88 167.5C88 291.3 188.7 392 312.5 392c17.45 0 32.39-11.88 36.31-28.88l10.2-44.28C363.1 301.3 353.1 283.5 337.5 276.3zM317.7 355.9C317.1 358.4 315 360 312.5 360C206.4 360 120 273.6 120 167.5c0-2.469 1.625-4.5 4.094-5.062l44.25-10.27C168.7 152 169.1 152 169.5 152c2.062 0 4.016 1.234 4.844 3.125l20.44 47.7c.9531 2.234 .3906 4.594-1.453 6.109L174.3 224.5C168.4 229.4 166.7 237.8 170.4 244.5c15 27.58 37.53 50.09 65.13 65.13c6.781 3.688 15.17 2 20.03-3.906l15.58-19.02c1.406-1.734 3.984-2.328 6.016-1.516l47.66 20.44c2.328 1.031 3.609 3.562 3.047 6L317.7 355.9z"/></svg>

<svg xmlns="http://www.w3.org/2000/svg" viewBox="0 0 448 512"><!-- Font Awesome Pro 6.0.0-alpha2 by @fontawesome - https://fontawesome.com License - https://fontawesome.com/license (Commercial License) --><path d="M384 32H64C28.654 32 0 60.656 0 96V416C0 451.344 28.654 480 64 480H384C419.346 480 448 451.344 448 416V96C448 60.656 419.346 32 384 32ZM416 416C416 433.645 401.645 448 384 448H64C46.355 448 32 433.645 32 416V96C32 78.355 46.355 64 64 64H384C401.645 64 416 78.355 416 96V416ZM337.562 276.297C337.531 276.281 337.469 276.281 337.453 276.266L289.594 255.75C274.422 249.422 256.625 253.891 246.344 266.5L239.625 274.687C226.141 265.5 214.547 253.906 205.359 240.438L213.625 233.656C226.484 223.031 230.734 205.594 224.172 190.25L203.703 142.469C196.563 125.953 178.641 116.969 161.125 120.953L116.938 131.203C99.906 135.078 88 149.984 88 167.469C88 291.281 188.719 392 312.531 392C329.984 392 344.922 380.125 348.844 363.125L359.047 318.844C363.062 301.344 354.031 283.469 337.562 276.297ZM317.656 355.938C317.094 358.375 315.031 360 312.531 360C206.375 360 120 273.625 120 167.469C120 165 121.625 162.969 124.094 162.406L168.344 152.141C168.719 152.047 169.094 152 169.469 152C171.531 152 173.484 153.234 174.312 155.125L194.75 202.828C195.703 205.062 195.141 207.422 193.297 208.938L174.312 224.5C168.375 229.375 166.734 237.781 170.406 244.531C185.406 272.109 207.938 294.625 235.531 309.656C242.312 313.344 250.703 311.656 255.562 305.75L271.141 286.734C272.547 285 275.125 284.406 277.156 285.219L324.812 305.656C327.141 306.688 328.422 309.219 327.859 311.656L317.656 355.938Z"/></svg>
